assets/Speedboat/Flat/speedboat_flat.svg

<svg width="32" height="32" viewBox="0 0 32 32" fill="none" xmlns="http://www.w3.org/2000/svg">
<path d="M27.28 14.0025C27.08 13.9825 26.89 14.0825 26.78 14.2525L23.73 19.3625L27.28 20.0625L29.05 14.8125C29.16 14.4925 28.94 14.1525 28.6 14.1225L27.28 14.0025Z" fill="#FF822D"/>
<path d="M14.52 13.5182L10.96 16.5382L22.88 18.6382L22.9 18.4682C22.97 17.6982 22.62 16.9582 21.99 16.5482L17.1 13.3482C16.8 13.1482 16.47 13.0382 16.13 13.0082C15.55 12.9582 14.97 13.1382 14.52 13.5182Z" fill="#D3D3D3"/>
<path d="M14.46 13.5483L10.96 16.5383L14.52 17.1683L16.68 15.3283C16.95 15.0083 16.88 14.5183 16.53 14.2883L15.88 13.8683L14.94 13.2583H14.93C14.77 13.3283 14.6 13.4283 14.46 13.5483Z" fill="#26EAFC"/>
<path d="M17.66 15.8982L15.89 17.4082L21.73 18.4382L21.74 18.3082C21.78 17.9182 21.6 17.5482 21.28 17.3382L18.95 15.8182C18.8 15.7182 18.63 15.6582 18.46 15.6482C18.19 15.6182 17.89 15.7082 17.66 15.8982Z" fill="#26EAFC"/>
<path d="M3.70999 19.3482C6.60067 24.225 11.3272 27.1343 16.3681 27.1343H25.7908C27.87 27.1343 29.6044 25.3971 30 23.0738L3 18.1343L3.70999 19.3482Z" fill="#FF822D"/>
<path d="M1.99999 16.1343L30 21.1343C29.8496 20.1545 29.128 19.3707 28.1759 19.2214L3.37985 15.1529C3.30969 15.1436 3.24955 15.1343 3.18941 15.1343C2.46778 15.1343 1.94988 15.4344 1.99999 16.1343Z" fill="#FF822D"/>
<path d="M2.20028 16.8343L3.24177 18.5343L30 23.1343C30 23.1343 30 22.6243 30 22.2843V21.5143C30 21.3743 30 21.1343 30 21.1343L2 16.1343C2.01001 16.3843 2.0701 16.6143 2.20028 16.8343Z" fill="#D3D3D3"/>
<path d="M30 23C28.2506 23 28.2506 24.3067 26.4913 24.3067C24.7419 24.3067 24.7419 23 22.9825 23C21.2331 23 21.2331 24.3067 19.4838 24.3067C17.7344 24.3067 17.7344 23 15.985 23C14.2356 23 14.2356 24.3067 12.4863 24.3067C10.7369 24.3067 10.7369 23 8.9875 23C7.23813 23 7.23813 24.3067 5.49875 24.3067C3.74938 24.3067 3.74938 23 2 23V30H29.99L30 23Z" fill="#00A6ED"/>
</svg>

<svg xmlns="http://www.w3.org/2000/svg" width="32" height="32" fill="none"><path fill="#FF822D" d="M27.28 14.002c-.2-.02-.39.08-.5.25l-3.05 5.11 3.55.7 1.77-5.25a.523.523 0 0 0-.45-.69l-1.32-.12Z"/><path fill="#D3D3D3" d="m14.52 13.518-3.56 3.02 11.92 2.1.02-.17a2.06 2.06 0 0 0-.91-1.92l-4.89-3.2c-.3-.2-.63-.31-.97-.34a2.2 2.2 0 0 0-1.61.51Z"/><path fill="#26EAFC" d="m14.46 13.548-3.5 2.99 3.56.63 2.16-1.84c.27-.32.2-.81-.15-1.04l-.65-.42-.94-.61h-.01c-.16.07-.33.17-.47.29ZM17.66 15.898l-1.77 1.51 5.84 1.03.01-.13c.04-.39-.14-.76-.46-.97l-2.33-1.52a.996.996 0 0 0-.49-.17c-.27-.03-.57.06-.8.25Z"/><path fill="#FF822D" d="M3.71 19.348c2.89 4.877 7.617 7.786 12.658 7.786h9.423c2.079 0 3.813-1.737 4.209-4.06l-27-4.94.71 1.214ZM2 16.134l28 5c-.15-.98-.872-1.763-1.824-1.913L3.38 15.153c-.07-.01-.13-.019-.19-.019-.722 0-1.24.3-1.19 1Z"/><path fill="#D3D3D3" d="m2.2 16.834 1.042 1.7L30 23.134v-2l-28-5c.01.25.07.48.2.7Z"/><path fill="#00A6ED" d="M30 23c-1.75 0-1.75 1.307-3.509 1.307-1.75 0-1.75-1.307-3.508-1.307-1.75 0-1.75 1.307-3.5 1.307-1.749 0-1.749-1.307-3.498-1.307-1.75 0-1.75 1.307-3.499 1.307-1.75 0-1.75-1.307-3.498-1.307-1.75 0-1.75 1.307-3.49 1.307C3.75 24.307 3.75 23 2 23v7h27.99l.01-7Z"/></svg>
